dist/img/Vk.svg

<svg xmlns="http://www.w3.org/2000/svg" viewBox="0 0 32 32">
    <path style="text-indent:0;text-align:start;line-height:normal;text-transform:none;block-progression:tb;-inkscape-font-specification:Bitstream Vera Sans" d="M 9.09375 5 C 6.8512095 5 5 6.8512095 5 9.09375 L 5 22.90625 C 5 25.148791 6.8512095 27 9.09375 27 L 22.90625 27 C 25.148791 27 27 25.148791 27 22.90625 L 27 9.09375 C 27 6.8512095 25.148791 5 22.90625 5 L 9.09375 5 z M 9.09375 7 L 22.90625 7 C 24.067709 7 25 7.9322905 25 9.09375 L 25 22.90625 C 25 24.067709 24.067709 25 22.90625 25 L 9.09375 25 C 7.9322905 25 7 24.067709 7 22.90625 L 7 9.09375 C 7 7.9322905 7.9322905 7 9.09375 7 z M 15.71875 12.21875 C 14.98475 12.21175 14.352 12.23325 14 12.40625 C 13.766 12.52125 13.5775 12.76625 13.6875 12.78125 C 13.8235 12.79925 14.1495 12.87175 14.3125 13.09375 C 14.5235 13.38075 14.5 14.03125 14.5 14.03125 C 14.5 14.03125 14.62275 15.81025 14.21875 16.03125 C 13.94175 16.18225 13.567 15.8485 12.75 14.4375 C 12.331 13.7145 12.03125 12.9375 12.03125 12.9375 C 12.03125 12.9375 11.95275 12.7675 11.84375 12.6875 C 11.71175 12.5905 11.53125 12.5625 11.53125 12.5625 L 9.59375 12.59375 C 9.59375 12.59375 9.2945 12.59075 9.1875 12.71875 C 9.0915 12.83275 9.15625 13.0625 9.15625 13.0625 C 9.15625 13.0625 10.7035 16.66375 12.4375 18.46875 C 14.0295 20.12275 15.84375 20 15.84375 20 L 16.65625 20 C 16.65625 20 16.90525 19.97975 17.03125 19.84375 C 17.14725 19.71875 17.125 19.46875 17.125 19.46875 C 17.125 19.46875 17.116 18.37975 17.625 18.21875 C 18.127 18.05975 18.78475 19.281 19.46875 19.75 C 19.98575 20.105 20.375 20.03125 20.375 20.03125 L 22.1875 20 C 22.1875 20 23.1405 19.9395 22.6875 19.1875 C 22.6505 19.1265 22.43875 18.641 21.34375 17.625 C 20.19775 16.561 20.33775 16.715 21.71875 14.875 C 22.55975 13.754 22.9175 13.07425 22.8125 12.78125 C 22.7125 12.50225 22.09375 12.59375 22.09375 12.59375 L 20.03125 12.59375 C 20.03125 12.59375 19.863 12.58825 19.75 12.65625 C 19.639 12.72225 19.5625 12.875 19.5625 12.875 C 19.5625 12.875 19.2465 13.73075 18.8125 14.46875 C 17.8965 16.02475 17.525 16.096 17.375 16 C 17.026 15.775 17.125 15.107 17.125 14.625 C 17.125 13.117 17.3615 12.4755 16.6875 12.3125 C 16.4635 12.2585 16.29175 12.22475 15.71875 12.21875 z" color="#000" overflow="visible" font-family="Bitstream Vera Sans"/>
</svg>

<svg xmlns="http://www.w3.org/2000/svg" viewBox="0 0 32 32"><path style="text-indent:0;text-align:start;line-height:normal;text-transform:none;block-progression:tb;-inkscape-font-specification:Bitstream Vera Sans" d="M9.094 5C6.85 5 5 6.851 5 9.094v13.812C5 25.15 6.851 27 9.094 27h13.812C25.15 27 27 25.149 27 22.906V9.094C27 6.85 25.149 5 22.906 5H9.094zm0 2h13.812C24.068 7 25 7.932 25 9.094v13.812A2.087 2.087 0 0122.906 25H9.094A2.087 2.087 0 017 22.906V9.094C7 7.932 7.932 7 9.094 7zm6.625 5.219c-.734-.007-1.367.014-1.719.187-.234.115-.422.36-.313.375.136.018.463.09.626.313.21.287.187.937.187.937s.123 1.78-.281 2c-.277.151-.652-.182-1.469-1.593-.419-.724-.719-1.5-.719-1.5s-.078-.17-.187-.25c-.132-.098-.313-.126-.313-.126l-1.937.032s-.3-.003-.406.125c-.097.114-.032.344-.032.344s1.547 3.6 3.281 5.406C14.03 20.123 15.845 20 15.845 20h.812s.25-.02.375-.156c.116-.125.094-.375.094-.375s-.009-1.09.5-1.25c.502-.16 1.16 1.062 1.844 1.531.517.355.906.281.906.281L22.188 20s.953-.06.5-.813c-.037-.06-.25-.546-1.344-1.562-1.146-1.064-1.006-.91.375-2.75.84-1.121 1.198-1.8 1.093-2.094-.1-.279-.718-.187-.718-.187H20.03s-.168-.006-.281.062c-.111.066-.188.219-.188.219s-.316.856-.75 1.594c-.916 1.556-1.287 1.627-1.437 1.531-.349-.225-.25-.893-.25-1.375 0-1.508.236-2.15-.438-2.313-.224-.053-.395-.087-.968-.093z" color="#000" overflow="visible" font-family="Bitstream Vera Sans"/></svg>
